X: 2042
T: Der Gasn Nigun/The Street Tune
B: steve tunes
M:3/8
L:1/16
Q: 3/8=60
K:F
V:1 
 F2 x4 |: "Dm"FG- G2G2 | "Gm"G4 F2 | "Dm"FD- D4- | D2 z2 F2 |"Dm" FG G2G2 | "C7"G3F1 AG |
 "F"F2>C2 AC | F2 z2 C2 | "Fm"C2>F2 EF | G2>_A2 =Bc | "G"d2>_e2 dc | =B2>_A2 GF |
 "Dm"F2>E2 "Gm"GE | "Dm"F2>D2 "Cm"(3_EDC | "Dm"D2>d2 AF |1D2 z2 F2 :|2 D2>A,2 DF ||
|:"Dm" A6- | A2>A2 (3c=BA | ^G2=B2 A4- | A2>D2 FA | "Dm7"c2>=B2 (3cBA | c2>=B2 (3cBA  |
"Dm" ^G=B A4- | A3A,1 DF | A2>^G2 (3AGF | A2>^G2 (3AGF | E=G F4- | F3A,1 DE |
F3E (3FED | F2>E2 (3FED |^CE D4- | D2>A,2 DF ||2 ^CE D4 | D4 x2 || 
% abcbook-tune_id 62a52f60fc008186ada4de8b


% abcbook-boost 0
% abcbook-tablature 
% abcbook-transpose 
% abcbook-lastupdated 1654994507469
% abcbook-soundfonts 
% abcbook-repeats 3
%%scale 0.71
%%pagewidth 21.59cm
%%leftmargin 1.39cm
%%rightmargin 1.39cm

